documentation/public/assets/images/badge.svg

<svg width="78" height="34" viewBox="0 0 78 34" fill="none" xmlns="http://www.w3.org/2000/svg">
<rect x="0.5" y="0.5" width="77" height="33" rx="4.5" fill="#F3F8FF"/>
<path d="M12.6709 20.6199C12.3209 20.6199 12.0509 20.3399 12.0509 19.9999V17.2899H9.34086C8.99086 17.2899 8.72086 17.0099 8.72086 16.6699C8.72086 16.3299 9.00086 16.0499 9.34086 16.0499H12.0509V13.3399C12.0509 12.9899 12.3309 12.7199 12.6709 12.7199C13.0109 12.7199 13.2909 12.9999 13.2909 13.3399V16.0499H16.0009C16.3509 16.0499 16.6209 16.3299 16.6209 16.6699C16.6209 17.0099 16.3409 17.2899 16.0009 17.2899H13.2909V19.9999C13.2909 20.3499 13.0109 20.6199 12.6709 20.6199Z" fill="#184BC8"/>
<path d="M12.6709 23.9599C8.65086 23.9599 5.38086 20.6899 5.38086 16.6699C5.38086 12.6499 8.65086 9.37988 12.6709 9.37988C16.6909 9.37988 19.9609 12.6499 19.9609 16.6699C19.9609 20.6899 16.6909 23.9599 12.6709 23.9599ZM12.6709 10.6199C9.34086 10.6199 6.62086 13.3399 6.62086 16.6699C6.62086 19.9999 9.33086 22.7099 12.6609 22.7099C15.9909 22.7099 18.7009 19.9999 18.7009 16.6699C18.7009 13.3399 16.0009 10.6199 12.6709 10.6199Z" fill="#184BC8"/>
<path d="M27.2536 23H25.7763L30.049 11.3636H31.5036L35.7763 23H34.299L30.8217 13.2045H30.7308L27.2536 23ZM27.799 18.4545H33.7536V19.7045H27.799V18.4545ZM40.9524 23.1818C40.1342 23.1818 39.4297 22.9886 38.8388 22.6023C38.2479 22.2159 37.7933 21.6837 37.4751 21.0057C37.157 20.3277 36.9979 19.553 36.9979 18.6818C36.9979 17.7955 37.1607 17.0133 37.4865 16.3352C37.8161 15.6534 38.2744 15.1212 38.8615 14.7386C39.4524 14.3523 40.1418 14.1591 40.9297 14.1591C41.5433 14.1591 42.0964 14.2727 42.5888 14.5C43.0812 14.7273 43.4846 15.0455 43.799 15.4545C44.1134 15.8636 44.3085 16.3409 44.3842 16.8864H43.0433C42.9411 16.4886 42.7138 16.1364 42.3615 15.8295C42.013 15.5189 41.5433 15.3636 40.9524 15.3636C40.4297 15.3636 39.9714 15.5 39.5774 15.7727C39.1873 16.0417 38.8823 16.4223 38.6626 16.9148C38.4467 17.4034 38.3388 17.9773 38.3388 18.6364C38.3388 19.3106 38.4448 19.8977 38.657 20.3977C38.8729 20.8977 39.1759 21.286 39.5661 21.5625C39.96 21.839 40.4221 21.9773 40.9524 21.9773C41.3009 21.9773 41.6172 21.9167 41.9013 21.7955C42.1854 21.6742 42.4259 21.5 42.6229 21.2727C42.8198 21.0455 42.96 20.7727 43.0433 20.4545H44.3842C44.3085 20.9697 44.121 21.4337 43.8217 21.8466C43.5263 22.2557 43.1342 22.5814 42.6456 22.8239C42.1607 23.0625 41.5964 23.1818 40.9524 23.1818ZM50.1399 14.2727V15.4091H45.6172V14.2727H50.1399ZM46.9354 12.1818H48.2763V20.5C48.2763 20.8788 48.3312 21.1629 48.4411 21.3523C48.5547 21.5379 48.6986 21.6629 48.8729 21.7273C49.0509 21.7879 49.2384 21.8182 49.4354 21.8182C49.5831 21.8182 49.7043 21.8106 49.799 21.7955C49.8937 21.7765 49.9695 21.7614 50.0263 21.75L50.299 22.9545C50.2081 22.9886 50.0812 23.0227 49.9183 23.0568C49.7554 23.0947 49.549 23.1136 49.299 23.1136C48.9202 23.1136 48.549 23.0322 48.1854 22.8693C47.8255 22.7064 47.5263 22.4583 47.2876 22.125C47.0528 21.7917 46.9354 21.3712 46.9354 20.8636V12.1818ZM52.157 23V14.2727H53.4979V23H52.157ZM52.8388 12.8182C52.5774 12.8182 52.352 12.7292 52.1626 12.5511C51.977 12.3731 51.8842 12.1591 51.8842 11.9091C51.8842 11.6591 51.977 11.4451 52.1626 11.267C52.352 11.089 52.5774 11 52.8388 11C53.1001 11 53.3236 11.089 53.5092 11.267C53.6986 11.4451 53.7933 11.6591 53.7933 11.9091C53.7933 12.1591 53.6986 12.3731 53.5092 12.5511C53.3236 12.7292 53.1001 12.8182 52.8388 12.8182ZM63.0902 14.2727L59.8629 23H58.4993L55.272 14.2727H56.7266L59.1357 21.2273H59.2266L61.6357 14.2727H63.0902ZM68.2067 23.1818C67.3658 23.1818 66.6404 22.9962 66.0305 22.625C65.4245 22.25 64.9567 21.7273 64.6271 21.0568C64.3014 20.3826 64.1385 19.5985 64.1385 18.7045C64.1385 17.8106 64.3014 17.0227 64.6271 16.3409C64.9567 15.6553 65.415 15.1212 66.0021 14.7386C66.593 14.3523 67.2824 14.1591 68.0703 14.1591C68.5249 14.1591 68.9737 14.2348 69.4169 14.3864C69.8601 14.5379 70.2635 14.7841 70.6271 15.125C70.9908 15.4621 71.2805 15.9091 71.4964 16.4659C71.7124 17.0227 71.8203 17.7083 71.8203 18.5227V19.0909H65.093V17.9318H70.4567C70.4567 17.4394 70.3582 17 70.1612 16.6136C69.968 16.2273 69.6915 15.9223 69.3317 15.6989C68.9756 15.4754 68.5552 15.3636 68.0703 15.3636C67.5362 15.3636 67.0741 15.4962 66.6839 15.7614C66.2976 16.0227 66.0002 16.3636 65.7919 16.7841C65.5836 17.2045 65.4794 17.6553 65.4794 18.1364V18.9091C65.4794 19.5682 65.593 20.1269 65.8203 20.5852C66.0514 21.0398 66.3714 21.3864 66.7805 21.625C67.1896 21.8598 67.665 21.9773 68.2067 21.9773C68.5589 21.9773 68.8771 21.928 69.1612 21.8295C69.4491 21.7273 69.6972 21.5758 69.9055 21.375C70.1139 21.1705 70.2749 20.9167 70.3885 20.6136L71.6839 20.9773C71.5476 21.4167 71.3184 21.803 70.9964 22.1364C70.6745 22.4659 70.2768 22.7235 69.8033 22.9091C69.3298 23.0909 68.7976 23.1818 68.2067 23.1818Z" fill="#184BC8"/>
<rect x="0.5" y="0.5" width="77" height="33" rx="4.5" stroke="white"/>
</svg>

<svg width="78" height="34" fill="none" xmlns="http://www.w3.org/2000/svg"><rect x=".5" y=".5" width="77" height="33" rx="4.5" fill="#F3F8FF"/><path d="M12.67 20.62a.62.62 0 0 1-.62-.62v-2.71h-2.7a.62.62 0 0 1-.63-.62c0-.34.28-.62.62-.62h2.71v-2.71c0-.35.28-.62.62-.62.34 0 .62.28.62.62v2.71H16c.35 0 .62.28.62.62 0 .34-.28.62-.62.62h-2.7V20c0 .35-.29.62-.63.62Z" fill="#184BC8"/><path d="M12.67 23.96a7.3 7.3 0 1 1 .02-14.6 7.3 7.3 0 0 1-.02 14.6Zm0-13.34a6.05 6.05 0 1 0 0 12.09 6.05 6.05 0 0 0 0-12.09ZM27.25 23h-1.47l4.27-11.64h1.45L35.78 23H34.3l-3.48-9.8h-.09L27.25 23Zm.55-4.55h5.95v1.25H27.8v-1.25Zm13.15 4.73a3.8 3.8 0 0 1-2.11-.58 3.78 3.78 0 0 1-1.36-1.6 5.41 5.41 0 0 1-.48-2.32c0-.88.16-1.67.49-2.34a3.7 3.7 0 0 1 3.44-2.18c.61 0 1.17.11 1.66.34a2.98 2.98 0 0 1 1.8 2.39h-1.35a2.04 2.04 0 0 0-2.1-1.52c-.51 0-.97.13-1.36.4-.4.27-.7.65-.92 1.14a4.23 4.23 0 0 0-.32 1.73c0 .67.1 1.26.32 1.76.21.5.52.89.9 1.16.4.28.86.42 1.4.42.34 0 .66-.06.94-.18a1.96 1.96 0 0 0 1.14-1.35h1.34a3.1 3.1 0 0 1-1.73 2.37 3.8 3.8 0 0 1-1.7.36Zm9.19-8.9v1.13h-4.52v-1.14h4.52Zm-3.2-2.1h1.34v8.32c0 .38.05.66.16.85.11.19.26.31.43.38.18.06.37.09.57.09.14 0 .26 0 .36-.02l.23-.05.27 1.2a2.73 2.73 0 0 1-1 .16 2.7 2.7 0 0 1-1.11-.24 2.21 2.21 0 0 1-.9-.75 2.14 2.14 0 0 1-.35-1.26v-8.68ZM52.16 23v-8.73h1.34V23h-1.34Zm.68-10.18a.95.95 0 0 1-.68-.27.86.86 0 0 1-.28-.64c0-.25.1-.46.28-.64a.95.95 0 0 1 .68-.27c.26 0 .48.09.67.27.19.18.28.39.28.64s-.1.46-.28.64a.93.93 0 0 1-.67.27Zm10.25 1.45L59.86 23H58.5l-3.23-8.73h1.46l2.4 6.96h.1l2.4-6.96h1.46Zm5.12 8.91a3.74 3.74 0 0 1-3.58-2.13 5.35 5.35 0 0 1-.5-2.35c0-.89.17-1.68.5-2.36a3.7 3.7 0 0 1 3.44-2.18 4 4 0 0 1 1.35.23 3.34 3.34 0 0 1 2.08 2.08c.21.55.32 1.24.32 2.05v.57h-6.73v-1.16h5.37c0-.5-.1-.93-.3-1.32a2.23 2.23 0 0 0-2.09-1.25 2.47 2.47 0 0 0-2.28 1.42 3 3 0 0 0-.31 1.36v.77c0 .66.11 1.22.34 1.68.23.45.55.8.96 1.04.41.23.89.35 1.43.35.35 0 .67-.05.95-.15.29-.1.54-.25.75-.45.2-.2.36-.46.48-.77l1.3.37a2.9 2.9 0 0 1-.7 1.16c-.32.33-.71.58-1.19.77-.47.18-1 .27-1.6.27Z" fill="#184BC8"/><rect x=".5" y=".5" width="77" height="33" rx="4.5" stroke="#fff"/></svg>
